dist/svgs/devui-icons/op/go-document.svg

<svg xmlns="http://www.w3.org/2000/svg" viewBox="0 0 16 16"><path d="M2 1h8l4 4v10H2V1zm2 2v10h8V5.828L9.172 3H4zm1 3h4v2H5V6zm0 3h6v2H5V9z"/></svg>

<?xml version="1.0" encoding="UTF-8"?>
<svg width="16px" height="16px" viewBox="0 0 16 16" version="1.1" xmlns="http://www.w3.org/2000/svg" xmlns:xlink="http://www.w3.org/1999/xlink">
    <title>操作/文档</title>
    <desc>Created with Sketch.</desc>
    <g id="操作/文档" stroke="none" stroke-width="1" fill="none" fill-rule="evenodd">
        <g id="需求">
            <path d="M2,1 L10,1 L14,5 L14,15 L2,15 L2,1 Z M4,3 L4,13 L12,13 L12,5.82842712 L9.17157288,3 L4,3 Z M5,6 L9,6 L9,8 L5,8 L5,6 Z M5,9 L11,9 L11,11 L5,11 L5,9 Z" id="形状" fill="#293040" fill-rule="nonzero"></path>
        </g>
    </g>
</svg>
